images/feature-icon-3.svg

<svg width="44" height="44" viewBox="0 0 44 44" fill="none" xmlns="http://www.w3.org/2000/svg">
<path fill-rule="evenodd" clip-rule="evenodd" d="M42.7059 43.396H1.29414C0.912978 43.396 0.603943 43.087 0.603943 42.7058V5.76534C0.603943 5.38418 0.912978 5.07514 1.29414 5.07514H5.84322V1.29408C5.84322 0.912917 6.15217 0.603882 6.53342 0.603882H30.4189C30.6003 0.603882 30.7764 0.675403 30.9072 0.806196L35.5242 5.42706C35.6549 5.55776 35.7262 5.73368 35.7262 5.91494V7.76113C37.628 8.08854 39.0758 9.74656 39.0758 11.7417C39.0758 13.1289 38.3769 14.3518 37.3124 15.0794V21.8523C37.3124 22.0268 37.2463 22.1947 37.1275 22.3225L35.7262 23.8289V24.9006C37.5846 25.7448 38.8811 27.6195 38.8811 29.7868C38.8811 31.6314 37.9419 33.264 36.5164 34.2298C40.2097 35.3978 42.9683 38.6661 43.3922 42.6325C43.413 42.8272 43.3501 43.0216 43.2192 43.1672C43.0884 43.3129 42.9017 43.396 42.7059 43.396ZM24.4895 6.45554H1.98434V42.0156H23.7299C24.3613 38.3296 27.0225 35.3364 30.5216 34.2296C29.0969 33.2639 28.1576 31.6313 28.1576 29.7868C28.1576 28.6594 28.5085 27.6113 29.1065 26.7461V11.0727H25.1797C24.7984 11.0727 24.4895 10.7637 24.4895 10.3825V6.45554ZM29.7287 1.98427H7.22361V5.07514H25.1797C25.3609 5.07514 25.5369 5.14658 25.6677 5.27729L30.2848 9.89444C30.4155 10.0251 30.4869 10.2011 30.4869 10.3825V25.3675C31.3499 24.7726 32.3945 24.4238 33.5181 24.4238C33.7995 24.4238 34.076 24.4457 34.3458 24.4878V23.8279L32.9446 22.3226C32.8257 22.1949 32.7597 22.0269 32.7597 21.8523V21.263C32.7597 21.0682 32.8421 20.8824 32.9865 20.7515L33.3792 20.3958L32.9865 20.04C32.842 19.9091 32.7596 19.7232 32.7597 19.5282C32.7597 19.3333 32.8422 19.1475 32.9867 19.0167L33.3789 18.6619L32.9865 18.3065C32.8421 18.1757 32.7597 17.9898 32.7597 17.7949V15.0794C31.6951 14.3518 30.9961 13.129 30.9961 11.7417C30.9961 9.74691 32.4434 8.08897 34.3458 7.76122V6.60514H30.4189C30.0377 6.60514 29.7287 6.2961 29.7287 5.91494V1.98427ZM33.3707 5.22474L31.1091 2.96133V5.22474H33.3707ZM35.036 9.08277C33.5673 9.08311 32.3765 10.2738 32.3765 11.7417C32.3765 12.7555 32.9438 13.6357 33.7774 14.0852C34.0008 14.2057 34.1401 14.4389 34.1401 14.6927V17.4889L34.8706 18.1507C35.015 18.2816 35.0974 18.4675 35.0974 18.6625C35.0974 18.8574 35.0148 19.0432 34.8703 19.174L34.4782 19.5288L34.8706 19.8843C35.015 20.015 35.0974 20.2009 35.0974 20.3958C35.0974 20.5906 35.015 20.7764 34.8706 20.9072L34.1401 21.5691V21.5808L35.0364 22.5438L35.932 21.5809V14.6927C35.932 14.4389 36.0712 14.2057 36.2946 14.0852C37.1282 13.6357 37.6954 12.7555 37.6954 11.7417C37.6954 10.2736 36.5046 9.08277 35.0365 9.08277H35.036ZM33.5181 33.7694C35.7132 33.7694 37.5007 31.9797 37.5007 29.7868C37.5007 27.5938 35.7132 25.8042 33.5181 25.8042C31.3253 25.8042 29.538 27.5939 29.538 29.7868C29.538 31.9796 31.3253 33.7694 33.5181 33.7694ZM25.1338 42.0156H41.9029C41.1215 38.1 37.6651 35.1497 33.5181 35.1497C29.3734 35.1497 25.9172 38.1001 25.1338 42.0156ZM25.8699 7.43165V9.6923H28.1304L25.8699 7.43165ZM36.0317 10.9322C36.0317 11.4815 35.5858 11.9274 35.0365 11.9274C34.4861 11.9274 34.0402 11.4815 34.0402 10.9322C34.0402 10.3818 34.4861 9.93594 35.0365 9.93594C35.5858 9.93594 36.0317 10.3818 36.0317 10.9322ZM4.64875 33.181H9.25676C9.96749 33.181 10.5482 33.7618 10.5482 34.4725V39.0805C10.5482 39.7912 9.96749 40.3719 9.25676 40.3719H4.64875C3.93802 40.3719 3.35731 39.7912 3.35731 39.0805V34.4725C3.35731 33.7618 3.93802 33.181 4.64875 33.181ZM4.7377 34.5614V38.9916H9.16781V34.5614H4.7377ZM5.23852 37.146C4.96892 36.8769 4.96848 36.4396 5.23757 36.1699C5.50666 35.9003 5.94399 35.8998 6.21368 36.1689L6.68198 36.6363L7.64066 35.4508C7.88025 35.1546 8.31516 35.1085 8.61134 35.348C8.90761 35.5876 8.95359 36.0225 8.71409 36.3187L7.27357 38.1002C7.15063 38.2523 6.96884 38.345 6.77361 38.3555C6.57828 38.3658 6.38779 38.2929 6.24932 38.1548L5.23852 37.146ZM12.7311 36.0492C12.3501 36.0492 12.0409 35.7399 12.0409 35.359C12.0409 34.9781 12.3501 34.6688 12.7311 34.6688H21.0111C21.392 34.6688 21.7013 34.9781 21.7013 35.359C21.7013 35.7399 21.392 36.0492 21.0111 36.0492H12.7311ZM12.7311 27.9632C12.3501 27.9632 12.0409 27.654 12.0409 27.273C12.0409 26.8921 12.3501 26.5828 12.7311 26.5828H21.0111C21.392 26.5828 21.7013 26.8921 21.7013 27.273C21.7013 27.654 21.392 27.9632 21.0111 27.9632H12.7311ZM12.7311 38.8842C12.3501 38.8842 12.0409 38.5749 12.0409 38.194C12.0409 37.813 12.3501 37.5038 12.7311 37.5038H23.2829C23.6638 37.5038 23.9731 37.813 23.9731 38.194C23.9731 38.5749 23.6638 38.8842 23.2829 38.8842H12.7311ZM4.64875 25.0951H9.25676C9.96749 25.0951 10.5482 25.6758 10.5482 26.3865V30.9945C10.5482 31.7052 9.96749 32.286 9.25676 32.286H4.64875C3.93802 32.286 3.35731 31.7052 3.35731 30.9945V26.3865C3.35731 25.6758 3.93802 25.0951 4.64875 25.0951ZM4.7377 26.4755V30.9056H9.16781V26.4755H4.7377ZM5.23852 29.06C4.96892 28.7909 4.96848 28.3536 5.23757 28.084C5.50666 27.8143 5.94399 27.8138 6.21368 28.0829L6.68198 28.5504L7.64066 27.3648C7.88025 27.0686 8.31516 27.0225 8.61134 27.2621C8.90761 27.5016 8.95359 27.9365 8.71409 28.2327L7.27357 30.0142C7.15063 30.1663 6.96884 30.259 6.77361 30.2695C6.57828 30.2799 6.38779 30.2069 6.24932 30.0688L5.23852 29.06ZM12.7311 30.7982C12.3501 30.7982 12.0409 30.4889 12.0409 30.108C12.0409 29.7271 12.3501 29.4178 12.7311 29.4178H25.8712C26.2521 29.4178 26.5614 29.7271 26.5614 30.108C26.5614 30.4889 26.2521 30.7982 25.8712 30.7982H12.7311ZM10.1162 15.4327L8.40799 15.3666C8.1213 15.3555 7.87136 15.1682 7.78026 14.8962C7.68915 14.6242 7.77577 14.3241 7.99784 14.1426L15.1086 8.32968C15.3628 8.12184 15.7281 8.12184 15.9823 8.32968L23.093 14.1426C23.3151 14.3241 23.4018 14.6242 23.3106 14.8962C23.2195 15.1682 22.9696 15.3555 22.6829 15.3666L20.9746 15.4327V23.0855C20.9746 23.4667 20.6656 23.7757 20.2845 23.7757H10.8064C10.4253 23.7757 10.1162 23.4667 10.1162 23.0855V15.4327ZM19.5943 15.0663L15.5455 11.7565L11.4966 15.0663V22.3953H13.0745V17.4368C13.0745 17.0556 13.3835 16.7466 13.7647 16.7466H17.3262C17.7073 16.7466 18.0164 17.0556 18.0164 17.4368V22.3953H19.5943V15.0663ZM14.4549 22.3953H16.636V18.127H14.4549V22.3953ZM15.9823 10.3306L20.5536 14.0676L20.8083 14.0578L15.5455 9.75545L10.2826 14.0578L10.5372 14.0676L15.1086 10.3306C15.3628 10.1229 15.7281 10.1229 15.9823 10.3306Z" fill="white"/>
</svg>

<svg xmlns="http://www.w3.org/2000/svg" width="44" height="44" fill="none"><path fill="#fff" fill-rule="evenodd" d="M42.706 43.396H1.294a.69.69 0 0 1-.69-.69V5.766a.69.69 0 0 1 .69-.69h4.55V1.293a.69.69 0 0 1 .69-.69h23.885a.7.7 0 0 1 .488.202l4.617 4.621a.7.7 0 0 1 .202.488V7.76a4.041 4.041 0 0 1 1.586 7.318v6.773a.7.7 0 0 1-.184.47l-1.402 1.507V24.9a5.38 5.38 0 0 1 3.155 4.886c0 1.844-.94 3.477-2.365 4.443a9.94 9.94 0 0 1 6.876 8.403.69.69 0 0 1-.686.763M24.489 6.456H1.985v35.56H23.73a9.95 9.95 0 0 1 6.792-7.786 5.37 5.37 0 0 1-2.364-4.443c0-1.128.35-2.176.948-3.04V11.072H25.18a.69.69 0 0 1-.69-.69zm5.24-4.472H7.224v3.091H25.18a.7.7 0 0 1 .488.202l4.617 4.617a.7.7 0 0 1 .202.489v14.985a5.32 5.32 0 0 1 3.859-.88v-.66l-1.401-1.505a.7.7 0 0 1-.185-.47v-.59a.7.7 0 0 1 .227-.512l.392-.355-.392-.356a.69.69 0 0 1 0-1.023l.392-.355-.392-.355a.7.7 0 0 1-.227-.512v-2.716a4.041 4.041 0 0 1 1.586-7.318V6.605h-3.927a.69.69 0 0 1-.69-.69zm3.642 3.24-2.262-2.263v2.264zm1.665 3.859a2.66 2.66 0 0 0-1.259 5.002.69.69 0 0 1 .363.608v2.796l.73.662a.69.69 0 0 1 0 1.023l-.392.355.393.355a.69.69 0 0 1 0 1.023l-.73.662v.012l.895.963.896-.963v-6.888a.69.69 0 0 1 .363-.608 2.66 2.66 0 0 0-1.259-5.002m-1.518 24.686a3.99 3.99 0 0 0 3.983-3.982 3.99 3.99 0 0 0-3.983-3.983 3.99 3.99 0 0 0-3.98 3.983 3.99 3.99 0 0 0 3.98 3.982m-8.384 8.247h16.769a8.552 8.552 0 0 0-16.77 0m.736-34.584v2.26h2.26zm10.162 3.5a.996.996 0 1 1-1.992 0 .996.996 0 0 1 1.992 0M4.649 33.181h4.608c.71 0 1.291.58 1.291 1.291v4.608c0 .711-.58 1.292-1.291 1.292H4.649c-.711 0-1.292-.58-1.292-1.291v-4.609c0-.71.581-1.291 1.292-1.291m.089 1.38v4.43h4.43v-4.43zm.5 2.585a.69.69 0 0 1 .976-.977l.468.467.959-1.185a.69.69 0 0 1 1.073.868L7.274 38.1a.69.69 0 0 1-1.025.055zm7.493-1.097a.69.69 0 0 1 0-1.38h8.28a.69.69 0 0 1 0 1.38zm0-8.086a.69.69 0 0 1 0-1.38h8.28a.69.69 0 0 1 0 1.38zm0 10.921a.69.69 0 0 1 0-1.38h10.552a.69.69 0 0 1 0 1.38zM4.65 25.095h4.608c.71 0 1.291.58 1.291 1.292v4.607c0 .711-.58 1.292-1.291 1.292H4.649c-.711 0-1.292-.58-1.292-1.292v-4.607c0-.711.581-1.292 1.292-1.292m.089 1.38v4.43h4.43v-4.43zm.5 2.585a.69.69 0 0 1 .976-.977l.468.467.959-1.185a.69.69 0 0 1 1.073.868l-1.44 1.781a.69.69 0 0 1-1.025.055zm7.493 1.738a.69.69 0 0 1 0-1.38h13.14a.69.69 0 0 1 0 1.38zm-2.615-15.365-1.708-.066a.69.69 0 0 1-.41-1.224l7.11-5.813a.69.69 0 0 1 .874 0l7.111 5.813a.69.69 0 0 1-.41 1.224l-1.708.066v7.653a.69.69 0 0 1-.69.69h-9.479a.69.69 0 0 1-.69-.69zm9.478-.367-4.049-3.31-4.048 3.31v7.33h1.578v-4.96a.69.69 0 0 1 .69-.69h3.561a.69.69 0 0 1 .69.69v4.96h1.578zm-5.14 7.33h2.182v-4.269h-2.181zm1.528-12.065 4.572 3.737.254-.01-5.262-4.303-5.263 4.303.254.01 4.572-3.737a.69.69 0 0 1 .873 0" clip-rule="evenodd"/></svg>
